X:144
T: Die Linde im Thal
N: A0176
O: Europa, Mitteleuropa, Deutschland
N: Forster V 1556 No. 18.
R: Romanze, Ballade, Lied
M: 4/2
L: 1/4
K: F
z2F2F2A2 | G2F2E2E2 | D4z2
A2 | B2G4F4ED | E2F2D4 | C8
c4c2c2 | c2A2F2A2 | G4F2ED | E2
C2D2E2 | F2A2G2G2 | F8

